Adwaita++/status/32/network-wired-disconnected.svg

<svg height="32" width="32" xmlns="http://www.w3.org/2000/svg">
  <path d="m9 28-2-2h-4c-1.108 0-2-.892-2-2v-18c0-1.108.892-2 2-2h24c1.108 0 2 .892 2 2v18c0 1.108-.892 2-2 2h-4l-2 2z" opacity=".2"/>
  <path d="m9 27-2-2h-4c-1.108 0-2-.892-2-2v-18c0-1.108.892-2 2-2h24c1.108 0 2 .892 2 2v18c0 1.108-.892 2-2 2h-4l-2 2z" fill="#afafb1"/>
  <path d="m11 23-2-2h-4v-14h20v14h-4l-2 2z" opacity=".6"/>
  <g fill="#f8c44e" transform="matrix(1 0 0 -1 -1 -1)">
    <path d="m9-10h2v2h-2z"/>
    <path d="m12-10h2v2h-2z"/>
    <path d="m15-10h2v2h-2z"/>
    <path d="m18-10h2v2h-2z"/>
    <path d="m21-10h2v2h-2z"/>
  </g>
  <path d="m3 3c-1.108 0-2 .892-2 2v1c0-1.108.892-2 2-2h24c1.108 0 2 .892 2 2v-1c0-1.108-.892-2-2-2z" fill="#fff" opacity=".2"/>
  <path d="m5 21v1h4l2 2h8l2-2h4v-1h-4l-2 2h-8l-2-2z" fill="#fff" opacity=".2"/>
  <circle cx="24" cy="24" opacity=".2" r="8"/>
  <circle cx="24" cy="23" fill="#db3c30" r="8"/>
  <g fill="#fff" transform="matrix(.57142857 -.57142857 .57142857 .57142857 -16 21.857143)">
    <path d="m28 35h12v2h-12z"/>
    <path d="m-42 33h12v2h-12z" transform="rotate(-90)"/>
  </g>
</svg>

<svg xmlns="http://www.w3.org/2000/svg" width="32" height="32" version="1">
 <path style="opacity:0.2" d="M 9,28 7,26 H 3 C 1.892,26 1,25.108 1,24 V 6 C 1,4.892 1.892,4 3,4 h 24 c 1.108,0 2,0.892 2,2 v 18 c 0,1.108 -0.892,2 -2,2 h -4 l -2,2 z"/>
 <path style="fill:#afafb1" d="M 9,27 7,25 H 3 C 1.892,25 1,24.108 1,23 V 5 C 1,3.892 1.892,3 3,3 h 24 c 1.108,0 2,0.892 2,2 v 18 c 0,1.108 -0.892,2 -2,2 h -4 l -2,2 z"/>
 <path style="opacity:0.6" d="M 11,23 9,21 H 5 V 7 h 20 v 14 h -4 l -2,2 z"/>
 <g style="fill:#f8c44e" transform="matrix(1,0,0,-1,-1,-1)">
  <rect width="2" height="2" x="9" y="-10"/>
  <rect width="2" height="2" x="12" y="-10"/>
  <rect width="2" height="2" x="15" y="-10"/>
  <rect width="2" height="2" x="18" y="-10"/>
  <rect width="2" height="2" x="21" y="-10"/>
 </g>
 <path style="opacity:0.2;fill:#ffffff" d="M 3,3 C 1.892,3 1,3.892 1,5 V 6 C 1,4.892 1.892,4 3,4 h 24 c 1.108,0 2,0.892 2,2 V 5 C 29,3.892 28.108,3 27,3 Z"/>
 <path style="opacity:0.2;fill:#ffffff" d="m 5,21 v 1 h 4 l 2,2 h 8 l 2,-2 h 4 v -1 h -4 l -2,2 H 11 L 9,21 Z"/>
 <circle style="opacity:0.2" cx="24" cy="24" r="8"/>
 <circle cx="24" cy="23" r="8" style="fill:#db3c30"/>
 <g transform="matrix(0.57142857,-0.57142857,0.57142857,0.57142857,-16,21.857143)" style="fill:#ffffff">
  <rect width="12" height="2" x="28" y="35"/>
  <rect width="12" height="2" x="-42" y="33" transform="rotate(-90)"/>
 </g>
</svg>
